X: 1144
T: The Barkerville Connection (A63)
N: page A63
N: heptatonic
M: 2/4
L: 1/16
K: E
uEF|:v"E"GECE B,CEF|GuBcd edeug|"A"fevcuA BcBA|"E"GBGB "B"F2EF|
"E"GECE B,CEF|GuBcd edeug|"A"fevcA BcBA|"E"GBFG E2E2 :|
e3e e2uef|gefg "A"fucB2|"B"f3f fdfug|"A"afga "B"fedf|
"E"e2ge egveuc|"B"BcBA "E"GBEG|"A"AuBcA "E"GBEG|"B"FEDF "E"E2E2:|
